images/downloads-icon-4.svg

<svg width="60" height="60" viewBox="0 0 60 60" fill="none" xmlns="http://www.w3.org/2000/svg">
<path d="M12 9C10.4087 9 8.88258 9.63214 7.75736 10.7574C6.63214 11.8826 6 13.4087 6 15V26.013C8.25049 23.2282 11.5151 21.4515 15.0755 21.0737C18.636 20.6959 22.2007 21.748 24.9855 23.9985C27.7703 26.249 29.547 29.5136 29.9248 33.074C30.3026 36.6345 29.2505 40.1992 27 42.984V45H48C49.5913 45 51.1174 44.3679 52.2426 43.2426C53.3679 42.1174 54 40.5913 54 39V15C54 13.4087 53.3679 11.8826 52.2426 10.7574C51.1174 9.63214 49.5913 9 48 9H12ZM16.5 21C16.1022 21 15.7206 20.842 15.4393 20.5607C15.158 20.2794 15 19.8978 15 19.5C15 19.1022 15.158 18.7206 15.4393 18.4393C15.7206 18.158 16.1022 18 16.5 18H43.5C43.8978 18 44.2794 18.158 44.5607 18.4393C44.842 18.7206 45 19.1022 45 19.5C45 19.8978 44.842 20.2794 44.5607 20.5607C44.2794 20.842 43.8978 21 43.5 21H16.5ZM33 31.5C33 31.1022 33.158 30.7206 33.4393 30.4393C33.7206 30.158 34.1022 30 34.5 30H43.5C43.8978 30 44.2794 30.158 44.5607 30.4393C44.842 30.7206 45 31.1022 45 31.5C45 31.8978 44.842 32.2794 44.5607 32.5607C44.2794 32.842 43.8978 33 43.5 33H34.5C34.1022 33 33.7206 32.842 33.4393 32.5607C33.158 32.2794 33 31.8978 33 31.5ZM16.5 45C13.7152 45 11.0445 43.8938 9.07538 41.9246C7.10625 39.9555 6 37.2848 6 34.5C6 31.7152 7.10625 29.0445 9.07538 27.0754C11.0445 25.1062 13.7152 24 16.5 24C19.2848 24 21.9555 25.1062 23.9246 27.0754C25.8938 29.0445 27 31.7152 27 34.5C27 37.2848 25.8938 39.9555 23.9246 41.9246C21.9555 43.8938 19.2848 45 16.5 45ZM9 45.726C11.2201 47.209 13.8301 48.0003 16.5 48C19.275 48 21.855 47.16 24 45.726V54C24 54.2786 23.9224 54.5516 23.776 54.7886C23.6295 55.0256 23.42 55.2171 23.1708 55.3416C22.9217 55.4662 22.6427 55.519 22.3653 55.4939C22.0878 55.4689 21.8229 55.3671 21.6 55.2L17.4 52.05C17.1404 51.8553 16.8246 51.75 16.5 51.75C16.1754 51.75 15.8596 51.8553 15.6 52.05L11.4 55.2C11.1771 55.3671 10.9122 55.4689 10.6347 55.4939C10.3573 55.519 10.0783 55.4662 9.82918 55.3416C9.58002 55.2171 9.37048 55.0256 9.22402 54.7886C9.07757 54.5516 9 54.2786 9 54V45.726Z" fill="#2EA844"/>
</svg>

<svg width="60" height="60" fill="none" xmlns="http://www.w3.org/2000/svg"><path d="M12 9a6 6 0 00-6 6v11.013a13.5 13.5 0 1121 16.971V45h21a6 6 0 006-6V15a6 6 0 00-6-6H12zm4.5 12a1.5 1.5 0 110-3h27a1.5 1.5 0 110 3h-27zM33 31.5a1.5 1.5 0 011.5-1.5h9a1.5 1.5 0 110 3h-9a1.5 1.5 0 01-1.5-1.5zM16.5 45a10.5 10.5 0 110-21 10.5 10.5 0 010 21zm-7.5.726A13.5 13.5 0 0016.5 48c2.775 0 5.355-.84 7.5-2.274V54a1.5 1.5 0 01-2.4 1.2l-4.2-3.15a1.5 1.5 0 00-1.8 0l-4.2 3.15A1.5 1.5 0 019 54v-8.274z" fill="#2EA844"/></svg>
